epam-assets/icon-sources/18/social-network-linkedin.svg

<svg width="18" height="18" viewBox="0 0 18 18" fill="none" xmlns="http://www.w3.org/2000/svg">
<g id="18/social-network-linkedin">
<path id="icon" fill-rule="evenodd" clip-rule="evenodd" d="M15.75 15.75H12.75V10.6875C12.75 9.8925 11.8575 9.2325 11.0625 9.2325C10.2675 9.2325 9.75 9.8925 9.75 10.6875V15.75H6.75V6.75H9.75V8.25C10.245 7.4475 11.52 6.93 12.375 6.93C14.25 6.93 15.75 8.46 15.75 10.3125V15.75ZM5.25 15.75H2.25V6.75H5.25V15.75ZM3.75 2.25C4.57843 2.25 5.25 2.92157 5.25 3.75C5.25 4.57843 4.57843 5.25 3.75 5.25C2.92157 5.25 2.25 4.57843 2.25 3.75C2.25 2.92157 2.92157 2.25 3.75 2.25Z" fill="#6C6F80"/>
</g>
</svg>

<svg xmlns="http://www.w3.org/2000/svg" width="18" height="18" fill="none" viewBox="0 0 18 18">
  <path fill="#6C6F80" fill-rule="evenodd" d="M15.75 15.75h-3v-5.063c0-.794-.893-1.454-1.688-1.454-.794 0-1.312.66-1.312 1.454v5.063h-3v-9h3v1.5c.495-.803 1.77-1.32 2.625-1.32a3.382 3.382 0 0 1 3.375 3.383v5.437Zm-10.5 0h-3v-9h3v9Zm-1.5-13.5a1.5 1.5 0 1 1 0 3 1.5 1.5 0 0 1 0-3Z" clip-rule="evenodd"/>
</svg>
